svg/other/nurse_line.svg

<svg xmlns="http://www.w3.org/2000/svg" width="24" height="24" viewBox="0 0 24 24"><g fill="none" fill-rule="evenodd"><path d="M24,0 L24,24 L0,24 L0,0 L24,0 Z M12.5935,23.2578 L12.5819,23.2595 L12.5109,23.295 L12.4919,23.2987 L12.4767,23.295 L12.4057,23.2595 C12.3958,23.2564 12.387,23.259 12.3821,23.2649 L12.378,23.2758 L12.3609,23.7031 L12.3659,23.7235 L12.3769,23.7357 L12.4805,23.8097 L12.4953,23.8136 L12.5071,23.8097 L12.6107,23.7357 L12.6233,23.7197 L12.6267,23.7031 L12.6096,23.2758 C12.6076,23.2657 12.601,23.2593 12.5935,23.2578 Z M12.8584,23.1453 L12.8445,23.1473 L12.6598,23.2397 L12.6499,23.2499 L12.6472,23.2611 L12.6651,23.6906 L12.6699,23.7034 L12.6784,23.7105 L12.8793,23.8032 C12.8914,23.8069 12.9022,23.803 12.9078,23.7952 L12.9118,23.7812 L12.8777,23.1665 C12.8753,23.1546 12.8674,23.147 12.8584,23.1453 Z M12.143,23.1473 C12.1332,23.1424 12.1222,23.1453 12.1156,23.1526 L12.1099,23.1665 L12.0758,23.7812 C12.0751,23.7927 12.0828,23.8019 12.0926,23.8046 L12.1083,23.8032 L12.3092,23.7105 L12.3186,23.7024 L12.3225,23.6906 L12.3404,23.2611 L12.3372,23.2485 L12.3278,23.2397 L12.143,23.1473 Z"/><path fill="#09244B" fill-rule="nonzero" d="M9.00011,12 C9.00011,11.4477 9.44782,11 10.00011,11 L11.00011,11 L11.00011,10 C11.00011,9.44772 11.4478,9 12.00011,9 C12.5524,9 13.00011,9.44772 13.00011,10 L13.00011,11 L14.00011,11 C14.5524,11 15.00011,11.4477 15.00011,12 C15.00011,12.5523 14.5524,13 14.00011,13 L13.00011,13 L13.00011,14 C13.00011,14.5523 12.5524,15 12.00011,15 C11.4478,15 11.00011,14.5523 11.00011,14 L11.00011,13 L10.00011,13 C9.44782,13 9.00011,12.5523 9.00011,12 Z"/><path fill="#09244B" d="M3.13901,6.74229 C8.63962,3.53838 15.3606,3.53838 20.8612,6.74229 C21.6683,7.21237 21.9949,8.16384 21.7416,9.00817 L19.1717,17.5745 C18.9179,18.4204 18.1393,18.9998 17.2561,18.9998 L6.74414,18.9998 C5.86093,18.9998 5.08228,18.4204 4.82849,17.5745 L2.2586,9.00817 C2.0053,8.16384 2.33195,7.21238 3.13901,6.74229 Z M4.17947,8.45085 L6.74414,16.9998 L17.2561,16.9998 L19.8208,8.45085 C14.9599,5.63552 9.0403,5.63552 4.17947,8.45085 Z"/></g></svg>

<svg xmlns="http://www.w3.org/2000/svg" width="24" height="24"><g fill="none" fill-rule="evenodd"><path d="M24 0v24H0V0zM12.594 23.258l-.012.002-.071.035-.02.004-.014-.004-.071-.036c-.01-.003-.019 0-.024.006l-.004.01-.017.428.005.02.01.013.104.074.015.004.012-.004.104-.074.012-.016.004-.017-.017-.427c-.002-.01-.009-.017-.016-.018m.264-.113-.014.002-.184.093-.01.01-.003.011.018.43.005.012.008.008.201.092c.012.004.023 0 .029-.008l.004-.014-.034-.614c-.003-.012-.01-.02-.02-.022m-.715.002a.023.023 0 0 0-.027.006l-.006.014-.034.614c0 .012.007.02.017.024l.015-.002.201-.093.01-.008.003-.011.018-.43-.003-.012-.01-.01z"/><path fill="#09244B" fill-rule="nonzero" d="M9 12a1 1 0 0 1 1-1h1v-1a1 1 0 1 1 2 0v1h1a1 1 0 1 1 0 2h-1v1a1 1 0 1 1-2 0v-1h-1a1 1 0 0 1-1-1"/><path fill="#09244B" d="M3.139 6.742a17.54 17.54 0 0 1 17.722 0 1.963 1.963 0 0 1 .88 2.266l-2.57 8.567A2 2 0 0 1 17.257 19H6.744a2 2 0 0 1-1.916-1.425l-2.57-8.567a1.963 1.963 0 0 1 .881-2.266m1.04 1.709L6.744 17h10.512l2.565-8.55a15.539 15.539 0 0 0-15.642 0"/></g></svg>
